cssgg/chart.svg

<svg
  width="24"
  height="24"
  viewBox="0 0 24 24"
  fill="none"
  xmlns="http://www.w3.org/2000/svg"
>
  <path
    fill-rule="evenodd"
    clip-rule="evenodd"
    d="M22.775 8C22.9242 8.65461 23 9.32542 23 10H14V1C14.6746 1 15.3454 1.07584 16 1.22504C16.4923 1.33724 16.9754 1.49094 17.4442 1.68508C18.5361 2.13738 19.5282 2.80031 20.364 3.63604C21.1997 4.47177 21.8626 5.46392 22.3149 6.55585C22.5091 7.02455 22.6628 7.5077 22.775 8ZM20.7082 8C20.6397 7.77018 20.5593 7.54361 20.4672 7.32122C20.1154 6.47194 19.5998 5.70026 18.9497 5.05025C18.2997 4.40024 17.5281 3.88463 16.6788 3.53284C16.4564 3.44073 16.2298 3.36031 16 3.2918V8H20.7082Z"
    fill="currentColor"
  />
  <path
    fill-rule="evenodd"
    clip-rule="evenodd"
    d="M1 14C1 9.02944 5.02944 5 10 5C10.6746 5 11.3454 5.07584 12 5.22504V12H18.775C18.9242 12.6546 19 13.3254 19 14C19 18.9706 14.9706 23 10 23C5.02944 23 1 18.9706 1 14ZM16.8035 14H10V7.19648C6.24252 7.19648 3.19648 10.2425 3.19648 14C3.19648 17.7575 6.24252 20.8035 10 20.8035C13.7575 20.8035 16.8035 17.7575 16.8035 14Z"
    fill="currentColor"
  />
</svg>

<svg viewBox="0 0 24 24" xmlns="http://www.w3.org/2000/svg"><g fill-rule="evenodd"><path d="M22.775 8c.14.65.22 1.32.22 2h-9V1c.67 0 1.34.07 2 .22 .49.11.97.26 1.44.46 1.09.45 2.08 1.11 2.91 1.95 .83.83 1.49 1.82 1.95 2.91 .19.46.34.95.46 1.44Zm-2.07 0c-.07-.23-.15-.46-.25-.68 -.36-.85-.87-1.63-1.52-2.28 -.65-.66-1.43-1.17-2.28-1.52 -.23-.1-.45-.18-.68-.25v4.7h4.7Z"/><path d="M1 14c0-4.98 4.02-9 9-9 .67 0 1.34.07 2 .22v6.77h6.77c.14.65.22 1.32.22 2 0 4.97-4.03 9-9 9 -4.98 0-9-4.03-9-9Zm15.8 0H9.99V7.19c-3.76 0-6.81 3.04-6.81 6.8 0 3.75 3.04 6.8 6.8 6.8 3.75 0 6.8-3.05 6.8-6.81Z"/></g></svg>
